assets/svg/currencies/indices/DEFI.svg

<svg width="300" height="300" viewBox="0 0 300 300" fill="none" xmlns="http://www.w3.org/2000/svg">
<path d="M150 300C232.843 300 300 232.843 300 150C300 67.1573 232.843 0 150 0C67.1573 0 0 67.1573 0 150C0 232.843 67.1573 300 150 300Z" fill="#B2A1FB"/>
<path d="M49 113H74.1245C81.362 113 87.7379 114.564 93.2522 117.693C98.8354 120.752 103.109 125.062 106.073 130.624C109.106 136.117 110.622 142.409 110.622 149.5C110.622 156.591 109.106 162.918 106.073 168.48C103.109 173.972 98.8354 178.283 93.2522 181.411C87.7379 184.47 81.362 186 74.1245 186H49L49 113ZM74.1245 172.964C80.6727 172.964 85.739 170.844 89.3233 166.603C92.9765 162.292 94.8031 156.591 94.8031 149.5C94.8031 142.409 92.9765 136.742 89.3233 132.501C85.739 128.191 80.6727 126.036 74.1245 126.036H64.5089L64.5089 172.964H74.1245Z" fill="white"/>
<path d="M120.184 113L168.778 113V126.453L135.693 126.453V142.826H162.575V155.653L135.693 155.653V172.547L169.916 172.547V186L120.184 186L120.184 113Z" fill="white"/>
<path d="M179.251 113H227.018V126.453H194.76V143.556H221.228V156.383H194.76L194.76 186H179.251L179.251 113Z" fill="white"/>
<path d="M235.491 113H251L251 186H235.491L235.491 113Z" fill="white"/>
</svg>

<svg viewBox="0 0 300 300" fill="none" xmlns="http://www.w3.org/2000/svg">
    <path d="M150 300c82.843 0 150-67.157 150-150S232.843 0 150 0 0 67.157 0 150s67.157 150 150 150z" fill="#B2A1FB"/>
    <path d="M49 113h25.124c7.238 0 13.614 1.564 19.128 4.693 5.583 3.059 9.857 7.369 12.821 12.931 3.033 5.493 4.549 11.785 4.549 18.876 0 7.091-1.516 13.418-4.549 18.98-2.964 5.492-7.238 9.803-12.82 12.931C87.737 184.47 81.361 186 74.123 186H49v-73zm25.124 59.964c6.549 0 11.615-2.12 15.2-6.361 3.653-4.311 5.48-10.012 5.48-17.103 0-7.091-1.828-12.758-5.48-16.999-3.585-4.31-8.651-6.465-15.2-6.465H64.51v46.928h9.615zM120.184 113h48.594v13.453h-33.085v16.373h26.882v12.827h-26.882v16.894h34.223V186h-49.732v-73zm59.067 0h47.767v13.453H194.76v17.103h26.468v12.827H194.76V186h-15.509v-73zm56.24 0H251v73h-15.509v-73z" fill="#fff"/>
</svg>
